X:23
T:Fairy Dance
C:Nath. Gow
M:C|
L:1/8
Q:1/2=100
K:D
%%MIDI channel 1
%%MIDI program 72
%%MIDI transpose 8
%%MIDI grace 1/8
%%MIDI ratio 3 1
|:f2Tfdf2Tfd|f2fd (cd)eg|f2 (fd) gf.e.d|cABc defg :|
|:{g}a2afb2ba|{f}g2gea2ag|f2fd (gf)ed|1 cABc defg:|2 cABc .d2.d2||
